X:1
T:O Little Town of Bethlehem
T:O Little Town of Bethlehem
T:O Bethlehem, du kleiner Ort
T:Phillips Brooks (1868)
T:O holy Child of Bethlehem Descend to us, we pray Cast out our sin and enter in Be born to us today We hear the Christmas angels The great glad tidings tell O come to us, abide with us Our Lord Emmanuel
T:For Christ is born of Mary And gathered all above While mortals sleep the angels keep Their watch of wondering love Oh morning stars together Proclaim the holy birth And praises sing to God the King And peace to men on earth
T:by IMSLP - Public Domain
T:by IMSLP - Public Domain
C:Phillips Brooks (1868)
Z:by IMSLP - Public Domain
%%score [ ( 1 2 ) 3 ] ( 4 5 ) ( 6 7 )
L:1/8
Q:1/4=50
M:6/8
K:G
V:1 treble nm="S\nA"
V:2 treble 
V:3 treble nm="Alto" snm="A."
V:4 bass nm="T\nB"
V:5 bass 
V:6 bass nm="Bass" snm="B."
V:7 bass 
V:1
!mf!"^Joyously" B | A2 E A2 B | (GF) E G2 F | E2 E (EF) G | A3- A2!<(! ^A | B2 B!<)! d2 d | %6
w: O|lit\- tle town of|Beth- * le\- hem, How|still we see * thee|lie; _ A\-|bove thy deep and|
 (^cB) c A2 A | G2 G (GF) E | F3- F2 A |"^cresc." c2 B (AB) A | (G2 A) B2 B | d2 c (Bc) B | %12
w: dream- * less sleep The|si\- lent stars * go|by; _ Yet|in thy dark * streets|shin- * eth The|ev\- er\- last- * ing|
 A3- A2 A | (AB) c B2 d | (cd) c B2 G |1 (AB) c B2 A |!>(! G3- !fermata!G2 :|2 (A!>)!B) c B2 A | %18
w: Light; * The|hopes * and fears of|all _ the years, Are|met _ in thee to|night. _|Lord * Em\- man\- u\-|
 d3- d2"^rit." G || (AB) c B2 A | G3- G2"^a tempo" G |!<(! G3 A3!<)! |!f! B3- B2 d | %23
w: el, _ Our|Lord * Em\- man\- u\-|el, _ Em\-|man\- u\-|el, _ Em\-|
 (c2 B) (A2 B) | G3- !fermata!G2 |] %25
w: man- * u- *|el. _|
V:2
 D | E2 E E2 E | D2 D D2 D | D2 D ^C2 C | D3- D2 F | G2 G D2 D | G2 G G2 F | E2 E ED ^C | %8
 D3- D2 F | F2 F F2 F | G3 G2 G | ^G2 G G2 G | A3- A2 E | F2 F G2 G | G2 F G2 G |1 G2 G F2 F | %16
 G3- G2 :|2 G2 G F2 F | G3- G2 G || G2 G F2 F | G3- G2 D | E3 F3 | G3- G2 G | G3 F3 | G3- G2 |] %25
V:3
 D | E2 E E2 E | D2 D D2 D | D2 D ^C2 C | D3- D2 F | G2 G D2 D | G2 G G2 F | E2 E E D ^C | %8
 D3- D2 F | F2 F F2 F | G3 G2 G | ^G2 G G2 G | A3- A2 E | F2 F G2 G | G2 F G2 G |1 G2 G F2 F | %16
 G3- G2 :|2 G2 G F2 F | G3- G2 G || G2 G F2 F | G3- G2 D | E3 F3 | G3- G2 G | G3 F3 | G3- G2 |] %25
V:4
!mf! B, | C2 C C2 C | B,2 B, B,2 B, | B,2 B, A,2 A, | A,3- A,2!<(! D | D2 D!<)! A,2 A, | %6
 A,2 A, A,2 A, | B,2 B, A,2 A, | A,3- A,2!<(! D | E2 D!<)! (CD) C | (B,2 C) D2 D | =F2 E (DE) D | %12
 C3- C2 C | D2 D D2 D | E2 D D2 D |1 E2 E D2 C |!>(! B,3- !fermata!B,2!>)! :|2 E2 E D2 D | %18
 D3- D2 B, || E2 E D2 C | B,3- B,2 B, |!<(! B,3 D3!<)! | D3- D2 D | (E2 D) (C2 D) | %24
 B,3- !fermata!B,2 |] %25
V:5
 G, | G,2 G, G,2 G, | G,2 G, E,2 F, | G,2 G, G,2 G, | F,3- F,2 D, | G,2 G, F,2 F, | %6
 E,2 E, ^C,2 D, | G,2 E, A,2 A,, | D,3- D,2 D, | D,2 D, D,2 D, | G,3 G,2 G, | E,2 E, E,2 E, | %12
 A,3- A,2 A, | D,2 D, G,2 B, | A,2 D, G,2 B, |1 (CB,) A, D,2 D, | G,3- G,2 :|2 (CB,) A, D,2 C, | %18
 B,,3- B,,2 E, || (C,C,) A,, D,2 D, | G,3- G,2 G, | E,3 D,3 | G,3- G,2 B, | A,3 D,3 | G,3- G,2 |] %25
V:6
 x | x6 | x6 | x6 | x6 | x6 | x6 | x6 | x6 | x6 | x6 | x6 | x6 | x6 | x6 |1 (C B,) A, D,2 D, | %16
 G,3- G,2 :|2 (C B,) A, D,2 C, | B,,3- B,,2 E, || (C, C,) A,, D,2 D, | G,3- G,2 G, | E,3 D,3 | %22
 G,3- G,2 B, | A,3 D,3 | G,3- G,2 |] %25
V:7
 G, | G,2 G, G,2 G, | G,2 G, E,2 F, | G,2 G, G,2 G, | F,3- F,2 D, | G,2 G, F,2 F, | %6
 E,2 E, ^C,2 D, | G,2 E, A,2 A,, | D,3- D,2 D, | D,2 D, D,2 D, | G,3 G,2 G, | E,2 E, E,2 E, | %12
 A,3- A,2 A, | D,2 D, G,2 B, | A,2 D, G,2 B, |1 x6 | x5 :|2 x6 | x6 || x6 | x6 | x6 | x6 | x6 | %24
 x5 |] %25

